svgs/sharp-light/apartment.svg

<svg xmlns="http://www.w3.org/2000/svg" viewBox="0 0 576 512"><!--! Font Awesome Pro 6.6.0 by @fontawesome - https://fontawesome.com License - https://fontawesome.com/license (Commercial License) Copyright 2024 Fonticons, Inc. --><path d="M448 160l32 0 64 0 32 0 0 32 0 288 0 32-32 0-96 0-96 0-16 0-48 0-32 0-16 0-16 0-96 0-96 0L0 512l0-32L0 128 0 96l32 0 64 0 32 0 0-32 0-32 0-32 32 0L416 0l32 0 0 32 0 96 0 32zM224 480l0-112 0-16 16 0 96 0 16 0 0 16 0 112 96 0 96 0 0-288-96 0-32 0 0-32 0-128L160 32l0 64 0 32-32 0-96 0 0 352 96 0 96 0zm96 0l0-96-64 0 0 96 32 0 32 0zm192-32l-16 0-64 0-16 0 0-16 0-64 0-16 16 0 64 0 16 0 0 16 0 64 0 16zm-32-32l0-32-32 0 0 32 32 0zM144 384l-64 0-16 0 0-16 0-64 0-16 16 0 64 0 16 0 0 16 0 64 0 16-16 0zm-16-64l-32 0 0 32 32 0 0-32zm384 0l-16 0-64 0-16 0 0-16 0-64 0-16 16 0 64 0 16 0 0 16 0 64 0 16zm-32-64l-32 0 0 32 32 0 0-32zm-336 0l-64 0-16 0 0-16 0-64 0-16 16 0 64 0 16 0 0 16 0 64 0 16-16 0zm-16-64l-32 0 0 32 32 0 0-32zm208 96l-16 0-64 0-16 0 0-16 0-64 0-16 16 0 64 0 16 0 0 16 0 64 0 16zm-32-64l-32 0 0 32 32 0 0-32zm16-64l-64 0-16 0 0-16 0-64 0-16 16 0 64 0 16 0 0 16 0 64 0 16-16 0zM304 96l-32 0 0 32 32 0 0-32z"/></svg>

<svg xmlns="http://www.w3.org/2000/svg" viewBox="0 0 576 512"><!--! Font Awesome Pro 6.4.2 by @fontawesome - https://fontawesome.com License - https://fontawesome.com/license (Commercial License) Copyright 2023 Fonticons, Inc. --><path d="M448 160h32 64 32v32V480v32H544 448 352 336 288 256 240 224 128 32 0V480 128 96H32 96h32V64 32 0h32H416h32V32v96 32zM224 480V368 352h16 96 16v16V480h96 96V192H448 416V160 32H160V96v32H128 32V480h96 96zm96 0V384H256v96h32 32zm192-32H496 432 416V432 368 352h16 64 16v16 64 16zm-32-32V384H448v32h32zM144 384H80 64V368 304 288H80h64 16v16 64 16H144zm-16-64H96v32h32V320zm384 0H496 432 416V304 240 224h16 64 16v16 64 16zm-32-64H448v32h32V256zm-336 0H80 64V240 176 160H80h64 16v16 64 16H144zm-16-64H96v32h32V192zm208 96H320 256 240V272 208 192h16 64 16v16 64 16zm-32-64H272v32h32V224zm16-64H256 240V144 80 64h16 64 16V80v64 16H320zM304 96H272v32h32V96z"/></svg>
